X:1
T:23.    Juanita
T:Spanish Melody
T:Mrs. Caroline Norton
T:Transcribed By  Jennifer Lee
T:23.    Juanita
C:Spanish Melody
Z:Mrs. Caroline Norton
%%score { ( 1 3 ) | ( 2 4 ) }
L:1/8
M:3/4
K:Eb
V:1 treble nm="Piano" snm="Pno."
V:3 treble 
V:2 bass 
V:4 bass 
V:1
 [GB]3 z [FA]>[EG] | [EG]2 [DF]2 z2 | [DF]>[EG] [FA]3 [FA] | [EG][Ac] [GB]2 z2 | [GB]3 z [FA][EG] | %5
w: Soft o'er the|foun- tain,|Lin- g'ring falls the|south- ern moon;|Far o'er the|
 [EG]2 [DF]2 z2 | [DF]>[EG] [FA]2 B,2 | [B,E]4 z2 | [EG][GB] [Ge]3 [Bd] | [Bd]2 [Ac]2 z2 | %10
w: moun- tain,|Breaks the day too|soon!|In thy dark eyes'|splendor, _|
 [DF]>[DF] [GB]3 [FA] | [EG][Ac] [GB]2 z2 | [EG][GB] [Ge]3 [Bd] | [Bd]2 [Ac]2 z2 | %14
w: Where the warm- light|loves to dwell,|Wear- y looks, yet|ten- der,|
 [FB]>[FB] [DB]2 [DG]2 | E4 x2 | %16
w: Speak their fond fare-|well.|
"^2.  When in thy dreaming Moons like these shall shine again,     And daylight beaming, Prove thy dreams are vain,     Wilt thou not, relenting, For thine absent lover sigh?     In thy heart consenting To a prayer gone by?     Nita!  Juanita!  Let me linger by thy side!     Nita!  Juanita!  Be my own Fair Bride." [EG]2 [EG]2 (3GFG | %17
w: Ni- ta! Jua- * *|
 [DA]2 [DA]2 z2 | [DF]>[DF] [GB]3 [FA] | [EG][Ac] [GB]2 z2 | [EG]2 [EG]2 (3GFG | [DA]2 [DA]2 z2 | %22
w: ni- ta!|Ask thy soul if|we should part!|Ni- ta! Jua- * *|ni- ta!|
 B,B, [EG]2 [DF]2 | E4 x2 |] %24
w: Lean thou on my|heart.|
V:2
 [E,B,]3 z [E,B,]>[E,B,] | [B,,B,]2 [B,,B,]2 z2 | [B,,B,]>[B,,B,] [B,,B,]3 [D,B,] | %3
 [E,B,][E,E] [E,E]2 z2 | [E,E]3 z [E,B,][E,B,] | [B,,B,]2 [B,,B,]2 z2 | %6
 [B,,B,]>[B,,B,] [B,,B,]2 [B,,A,]2 | [E,G,]4 z2 | [E,B,][E,E] [E,E]3 [G,E] | [A,E]2 [A,E]2 z2 | %10
 B,>B, [B,,B,]3 [D,B,] | [E,B,][E,E] [E,E]2 z2 | [E,B,][E,E] [E,E]3 [G,E] | [A,E]2 [A,E]2 z2 | %14
 [B,D]>[B,D] B,2 [B,,A,]2 | [E,G,]4 z2 | [E,B,]2 [E,B,]2 [E,B,]2 | [F,B,]2 [F,B,]2 z2 | %18
 [B,,B,]>[B,,B,] [B,,B,]3 [D,B,] | [E,B,][E,E] [E,E]2 z2 | [E,B,]2 [E,B,]2 [E,B,]2 | %21
 [F,B,]2 [F,B,]2 z2 | [B,,B,][B,,B,] [B,,B,]2 [B,,A,]2 | [E,G,]4 z2 |] %24
V:3
 x6 | x6 | x6 | x6 | x6 | x6 | z4 B,2 | x6 | x6 | x6 | x6 | x6 | x6 | x6 | x6 | E4 z2 | z4 E2 | %17
 x6 | x6 | x6 | z4 E2 | x6 | B,B, x4 | E4 z2 |] %24
V:4
 x6 | x6 | x6 | x6 | x6 | x6 | x6 | x6 | x6 | x6 | B,>B, x4 | x6 | x6 | x6 | z2 B,2 z2 | x6 | x6 | %17
 x6 | x6 | x6 | x6 | x6 | x6 | x6 |] %24

